SVG_Azure_All/DevTest Lab.svg

<?xml version="1.0" encoding="UTF-8" standalone="no"?>
<!-- Generated by Microsoft Visio, SVG Export DevTest Lab.svg Page-1 -->

<svg
   xmlns:dc="http://purl.org/dc/elements/1.1/"
   xmlns:cc="http://creativecommons.org/ns#"
   xmlns:rdf="http://www.w3.org/1999/02/22-rdf-syntax-ns#"
   xmlns:svg="http://www.w3.org/2000/svg"
   xmlns="http://www.w3.org/2000/svg"
   xmlns:sodipodi="http://sodipodi.sourceforge.net/DTD/sodipodi-0.dtd"
   xmlns:inkscape="http://www.inkscape.org/namespaces/inkscape"
   width="0.78736037in"
   height="0.74808604in"
   viewBox="0 0 56.689855 53.862247"
   xml:space="preserve"
   class="st4"
   version="1.1"
   id="svg56"
   sodipodi:docname="DevTest Lab.svg"
   style="font-size:12px;overflow:visible;color-interpolation-filters:sRGB;fill:none;fill-rule:evenodd;stroke-linecap:square;stroke-miterlimit:3"
   inkscape:version="0.92.5 (2060ec1f9f, 2020-04-08)"><metadata
   id="metadata60"><rdf:RDF><cc:Work
       rdf:about=""><dc:format>image/svg+xml</dc:format><dc:type
         rdf:resource="http://purl.org/dc/dcmitype/StillImage" /></cc:Work></rdf:RDF></metadata><sodipodi:namedview
   pagecolor="#ffffff"
   bordercolor="#666666"
   borderopacity="1"
   objecttolerance="10"
   gridtolerance="10"
   guidetolerance="10"
   inkscape:pageopacity="0"
   inkscape:pageshadow="2"
   inkscape:window-width="640"
   inkscape:window-height="480"
   id="namedview58"
   showgrid="false"
   inkscape:zoom="1.4522376"
   inkscape:cx="37.795299"
   inkscape:cy="35.898365"
   inkscape:window-x="0"
   inkscape:window-y="0"
   inkscape:window-maximized="0"
   inkscape:current-layer="svg56" />
	<style
   type="text/css"
   id="style2">
	<![CDATA[
		.st1 {fill:url(#grad0-6);stroke:none;stroke-linecap:butt;stroke-width:34}
		.st2 {fill:url(#grad0-10);stroke:none;stroke-linecap:butt;stroke-width:34}
		.st3 {fill:#552f99;stroke:none;stroke-linecap:butt;stroke-width:34}
		.st4 {fill:none;fill-rule:evenodd;font-size:12px;overflow:visible;stroke-linecap:square;stroke-miterlimit:3}
	]]>
	</style>

	<defs
   id="Patterns_And_Gradients">
		<linearGradient
   id="grad0-6"
   x1="0"
   y1="98.593015"
   x2="47.346492"
   y2="98.593015"
   gradientTransform="scale(1.1973432,0.83518244)"
   gradientUnits="userSpaceOnUse">
			<stop
   offset="0"
   stop-color="#0078d4"
   stop-opacity="1"
   id="stop4" />
			<stop
   offset="0.16"
   stop-color="#1380da"
   stop-opacity="1"
   id="stop6" />
			<stop
   offset="0.53"
   stop-color="#3c91e5"
   stop-opacity="1"
   id="stop8" />
			<stop
   offset="0.82"
   stop-color="#559cec"
   stop-opacity="1"
   id="stop10" />
			<stop
   offset="1"
   stop-color="#5ea0ef"
   stop-opacity="1"
   id="stop12" />
		</linearGradient>
		<linearGradient
   id="grad0-10"
   x1="0.34255696"
   y1="90.423023"
   x2="34.293294"
   y2="90.423023"
   gradientTransform="scale(1.0204608,0.97994947)"
   gradientUnits="userSpaceOnUse">
			<stop
   offset="0"
   stop-color="#32d4f5"
   stop-opacity="1"
   id="stop15" />
			<stop
   offset="0.32"
   stop-color="#31d1f3"
   stop-opacity="1"
   id="stop17" />
			<stop
   offset="0.53"
   stop-color="#2ec9eb"
   stop-opacity="1"
   id="stop19" />
			<stop
   offset="0.7"
   stop-color="#29bade"
   stop-opacity="1"
   id="stop21" />
			<stop
   offset="0.86"
   stop-color="#22a5cb"
   stop-opacity="1"
   id="stop23" />
			<stop
   offset="1"
   stop-color="#198ab3"
   stop-opacity="1"
   id="stop25" />
			<stop
   offset="1"
   stop-color="#198ab3"
   stop-opacity="1"
   id="stop27" />
		</linearGradient>
	</defs>
	<g
   id="g54"
   transform="translate(-34.00016,-34.002054)">
		<title
   id="title31">Page-1</title>
		<g
   id="group5645-1"
   transform="translate(34,-34.0157)">
			<title
   id="title33">DevTest Lab</title>
			<g
   id="group5646-2">
				<title
   id="title35">Icon-devops-264</title>
				<g
   id="shape5647-3"
   transform="translate(0,-14.3254)">
					<title
   id="title37">Sheet.5647</title>
					<path
   d="M 56.69,109.54 A 12.7243,12.545 -180 0 0 45.63,97.49 16.0219,15.7962 -180 0 0 29.15,82.35 16.6548,16.4202 -180 0 0 13.32,92.86 15.1226,14.9095 -180 0 0 0,107.27 a 15.389,15.1723 -180 0 0 15.96,14.59 9.99288,9.85212 -180 0 0 1.39,0 h 25.82 a 2.13181,2.10179 -180 0 0 0.67,0 12.8575,12.6764 -180 0 0 12.85,-12.32 z"
   class="st1"
   id="path39"
   inkscape:connector-curvature="0"
   style="fill:url(#grad0-6);stroke:none;stroke-width:34;stroke-linecap:butt" />
				</g>
				<g
   id="shape5648-7"
   transform="translate(13.99)">
					<title
   id="title42">Sheet.5648</title>
					<path
   d="M 33.74,121.88 H 1.63 c -1.03,0 -1.63,-1.61 -1.06,-2.46 l 11.06,-15.9 a 1.13253,1.11657 -180 0 0 0.23,-0.72 V 92.29 A 0.666192,0.656808 -180 0 0 11.227118,91.666032 L 10.63,91.67 A 1.26576,1.24794 0 0 1 9.36,90.42 v -0.56 a 1.26576,1.24794 0 0 1 1.27,-1.25 h 14.09 a 1.26576,1.24794 0 0 1 1.26,1.25 v 0.56 a 1.26576,1.24794 0 0 1 -1.26,1.25 h -0.6 a 0.632882,0.623968 -180 0 0 -0.632882,0.623968 L 23.48,102.83 a 1.19915,1.18225 -180 0 0 0.24,0.73 l 11.06,15.86 c 0.56,0.82 -0.04,2.46 -1.04,2.46 z"
   class="st2"
   id="path44"
   inkscape:connector-curvature="0"
   style="fill:url(#grad0-10);stroke:none;stroke-width:34;stroke-linecap:butt" />
				</g>
				<g
   id="shape5649-11"
   transform="translate(19.2653,-3.11984)">
					<title
   id="title47">Sheet.5649</title>
					<path
   d="m 0.05,120.73 8.4,-12.08 a 3.1311,3.087 -180 0 0 0.66,-1.71 v -4.86 a 0.965978,0.952372 0 0 1 0.965978,-0.95237 L 14.88,101.13 a 0.965978,0.952372 0 0 1 0.965978,0.95237 L 15.84,107.27 a 2.03188,2.00326 -180 0 0 0.37,1.15 l 8.59,12.31 a 0.76612,0.755329 0 0 1 -0.599573,1.14941 L 0.89,121.88 a 0.732811,0.722489 0 0 1 -0.83274,-1.14941 z"
   class="st3"
   id="path49"
   inkscape:connector-curvature="0"
   style="fill:#552f99;stroke:none;stroke-width:34;stroke-linecap:butt" />
				</g>
			</g>
		</g>
	</g>
</svg>

<?xml version="1.0" encoding="UTF-8" standalone="no"?>
<!DOCTYPE svg PUBLIC "-//W3C//DTD SVG 1.1//EN" "http://www.w3.org/Graphics/SVG/1.1/DTD/svg11.dtd">
<!-- Generated by Microsoft Visio, SVG Export DevTest Lab.svg Page-1 -->
<svg xmlns="http://www.w3.org/2000/svg" xmlns:xlink="http://www.w3.org/1999/xlink" xmlns:ev="http://www.w3.org/2001/xml-events"
		width="1.73185in" height="1.69279in" viewBox="0 0 124.693 121.881" xml:space="preserve" color-interpolation-filters="sRGB"
		class="st4">
	<style type="text/css">
	<![CDATA[
		.st1 {fill:url(#grad0-6);stroke:none;stroke-linecap:butt;stroke-width:34}
		.st2 {fill:url(#grad0-10);stroke:none;stroke-linecap:butt;stroke-width:34}
		.st3 {fill:#552f99;stroke:none;stroke-linecap:butt;stroke-width:34}
		.st4 {fill:none;fill-rule:evenodd;font-size:12px;overflow:visible;stroke-linecap:square;stroke-miterlimit:3}
	]]>
	</style>

	<defs id="Patterns_And_Gradients">
		<linearGradient id="grad0-6" x1="0" y1="0" x2="1" y2="0" gradientTransform="rotate(-90 0.5 0.5)">
			<stop offset="0" stop-color="#0078d4" stop-opacity="1"/>
			<stop offset="0.16" stop-color="#1380da" stop-opacity="1"/>
			<stop offset="0.53" stop-color="#3c91e5" stop-opacity="1"/>
			<stop offset="0.82" stop-color="#559cec" stop-opacity="1"/>
			<stop offset="1" stop-color="#5ea0ef" stop-opacity="1"/>
		</linearGradient>
		<linearGradient id="grad0-10" x1="0" y1="0" x2="1" y2="0" gradientTransform="rotate(89.407756635938 0.5 0.5)">
			<stop offset="0" stop-color="#32d4f5" stop-opacity="1"/>
			<stop offset="0.32" stop-color="#31d1f3" stop-opacity="1"/>
			<stop offset="0.53" stop-color="#2ec9eb" stop-opacity="1"/>
			<stop offset="0.7" stop-color="#29bade" stop-opacity="1"/>
			<stop offset="0.86" stop-color="#22a5cb" stop-opacity="1"/>
			<stop offset="1" stop-color="#198ab3" stop-opacity="1"/>
			<stop offset="1" stop-color="#198ab3" stop-opacity="1"/>
		</linearGradient>
	</defs>
	<g>
		<title>Page-1</title>
		<g id="group5526-1" transform="translate(34,-34.0157)">
			<title>DevTest Lab</title>
			<g id="group5527-2">
				<title>Icon-devops-264</title>
				<g id="shape5528-3" transform="translate(0,-14.3254)">
					<title>Sheet.5528</title>
					<path d="M56.69 109.54 A12.7243 12.545 -180 0 0 45.63 97.49 A16.0219 15.7962 -180 0 0 29.15 82.35 A16.6548 16.4202
								 -180 0 0 13.32 92.86 A15.1226 14.9095 -180 0 0 0 107.27 A15.389 15.1723 -180 0 0 15.96 121.86 A9.99288
								 9.85212 -180 0 0 17.35 121.86 L43.17 121.86 A2.13181 2.10179 -180 0 0 43.84 121.86 A12.8575 12.6764
								 -180 0 0 56.69 109.54 Z" class="st1"/>
				</g>
				<g id="shape5529-7" transform="translate(13.99,2.70006E-13)">
					<title>Sheet.5529</title>
					<path d="M33.74 121.88 L1.63 121.88 C0.6 121.88 0 120.27 0.57 119.42 L11.63 103.52 A1.13253 1.11657 -180 0 0
								 11.86 102.8 L11.86 92.29 a0.666192 0.656808 -180 0 0 -0.632882 -0.623968 L10.63 91.67 A1.26576 1.24794
								 0 0 1 9.36 90.42 L9.36 89.86 A1.26576 1.24794 0 0 1 10.63 88.61 L24.72 88.61 A1.26576 1.24794 0
								 0 1 25.98 89.86 L25.98 90.42 A1.26576 1.24794 0 0 1 24.72 91.67 L24.12 91.67 a0.632882 0.623968
								 -180 0 0 -0.632882 0.623968 L23.48 102.83 A1.19915 1.18225 -180 0 0 23.72 103.56 L34.78 119.42 C35.34
								 120.24 34.74 121.88 33.74 121.88 Z" class="st2"/>
				</g>
				<g id="shape5530-11" transform="translate(19.2653,-3.11984)">
					<title>Sheet.5530</title>
					<path d="M0.05 120.73 L8.45 108.65 A3.1311 3.087 -180 0 0 9.11 106.94 L9.11 102.08 a0.965978 0.952372 0 0 1 0.965978
								 -0.952372 L14.88 101.13 a0.965978 0.952372 0 0 1 0.965978 0.952372 L15.84 107.27 A2.03188 2.00326
								 -180 0 0 16.21 108.42 L24.8 120.73 a0.76612 0.755329 0 0 1 -0.599573 1.14941 L0.89 121.88 a0.732811
								 0.722489 0 0 1 -0.83274 -1.14941 Z" class="st3"/>
				</g>
			</g>
		</g>
	</g>
</svg>
